X:18762
T:Wild Honey
R:reel
C:Paul S.Cranford
O:20th Century Cape Breton
D:The Lighthouse, Cranford Publications
B:The Lighthouse Collection, ISBN 0-9691181-5-5
N:http://www.cranfordpub.com
Q:300
L:1/8
M:C|
K:D
fg|adgd fdec|dBGB AFDF|E2 EF GFED|Eeef gbag|!
adgd fdec|dBGB AFDF|EDEF GBdB|AFEF D2:|!
|:FG|ADdD ADFA|BEeE BEGB|ADdD ADFD|EA,A,F G2 FG|!
ADdD ADFA|BEeE Bcdf|gefd efdB|cABc d2:|!


